img/icons/icons-reference-information/icon-exchange-rates.svg

<svg width="120" height="120" viewBox="0 0 120 120" fill="none" xmlns="http://www.w3.org/2000/svg">
<path d="M14.9466 50.6273H95.0346L54.9852 23.5193L14.9466 50.6273ZM97.2939 52C97.2939 52 97.2831 52 97.2722 52H12.7089C12.4048 52 12.1332 51.8009 12.0355 51.518C11.9377 51.235 12.0464 50.9312 12.307 50.7531L20.1467 45.4444L54.5833 22.1257C54.8222 21.9581 55.1481 21.9581 55.3979 22.1257L97.5872 50.6902C97.8371 50.795 98 51.0359 98 51.3084C98 51.6856 97.685 52 97.2939 52Z" fill="#282828"/>
<circle cx="24.8195" cy="30.8195" r="17.8195" fill="white"/>
<path d="M24.8519 48.7254C21.3195 48.7233 17.867 47.6738 14.9309 45.7098C11.9948 43.7457 9.70696 40.9552 8.35663 37.691C7.0063 34.4268 6.6541 30.8356 7.34455 27.3712C8.03501 23.9069 9.73712 20.7251 12.2357 18.228C14.7343 15.731 17.9171 14.0308 21.3818 13.3424C24.8466 12.6541 28.4376 13.0085 31.7009 14.3608C34.9643 15.7131 37.7535 18.0026 39.7158 20.9398C41.6781 23.8771 42.7254 27.3303 42.7254 30.8627C42.7197 35.6003 40.8344 40.142 37.4834 43.491C34.1324 46.84 29.5895 48.7225 24.8519 48.7254ZM24.8519 14.404C21.5971 14.4061 18.4161 15.3732 15.7109 17.183C13.0057 18.9928 10.8978 21.5641 9.65373 24.5717C8.40966 27.5793 8.08526 30.8883 8.72154 34.0802C9.35782 37.2722 10.9262 40.2039 13.2284 42.5046C15.5306 44.8053 18.4633 46.3718 21.6557 47.006C24.8481 47.6402 28.1569 47.3136 31.1637 46.0675C34.1705 44.8215 36.7403 42.712 38.5484 40.0056C40.3564 37.2992 41.3214 34.1175 41.3214 30.8627C41.3157 26.4975 39.5784 22.3128 36.4906 19.2271C33.4029 16.1415 29.2171 14.4068 24.8519 14.404Z" fill="#282828"/>
<path d="M26.6082 29.8043H14.6327C14.5022 29.8043 14.377 29.7304 14.2848 29.5987C14.1925 29.4671 14.1406 29.2885 14.1406 29.1024C14.1406 28.9162 14.1925 28.7376 14.2848 28.606C14.377 28.4743 14.5022 28.4004 14.6327 28.4004H26.6082C26.7387 28.4004 26.8639 28.4743 26.9561 28.606C27.0484 28.7376 27.1003 28.9162 27.1003 29.1024C27.1003 29.2885 27.0484 29.4671 26.9561 29.5987C26.8639 29.7304 26.7387 29.8043 26.6082 29.8043V29.8043Z" fill="#282828"/>
<path d="M26.6082 33.5954H14.6327C14.5022 33.5954 14.377 33.5214 14.2848 33.3898C14.1925 33.2581 14.1406 33.0796 14.1406 32.8934C14.1406 32.7072 14.1925 32.5287 14.2848 32.397C14.377 32.2654 14.5022 32.1914 14.6327 32.1914H26.6082C26.7387 32.1914 26.8639 32.2654 26.9561 32.397C27.0484 32.5287 27.1003 32.7072 27.1003 32.8934C27.1003 33.0796 27.0484 33.2581 26.9561 33.3898C26.8639 33.5214 26.7387 33.5954 26.6082 33.5954Z" fill="#282828"/>
<path d="M29.7533 41.3505H26.6538C23.907 41.3505 21.2727 40.2594 19.3304 38.3171C17.3881 36.3748 16.2969 33.7404 16.2969 30.9936C16.2969 28.2468 17.3881 25.6125 19.3304 23.6702C21.2727 21.7279 23.907 20.6367 26.6538 20.6367H29.7533C29.9395 20.6367 30.1181 20.7107 30.2497 20.8423C30.3813 20.974 30.4553 21.1525 30.4553 21.3387C30.4553 21.5249 30.3813 21.7034 30.2497 21.8351C30.1181 21.9667 29.9395 22.0407 29.7533 22.0407H26.6538C24.2793 22.0407 22.0021 22.9839 20.3231 24.6629C18.6441 26.3419 17.7009 28.6192 17.7009 30.9936C17.7009 33.3681 18.6441 35.6453 20.3231 37.3243C22.0021 39.0033 24.2793 39.9466 26.6538 39.9466H29.7533C29.9395 39.9466 30.1181 40.0205 30.2497 40.1522C30.3813 40.2838 30.4553 40.4624 30.4553 40.6486C30.4553 40.8347 30.3813 41.0133 30.2497 41.1449C30.1181 41.2766 29.9395 41.3505 29.7533 41.3505V41.3505Z" fill="#282828"/>
<path d="M21.3593 91.603H29.6407V59.397H21.3593V91.603ZM30.3203 93H20.6797C20.3032 93 20 92.6883 20 92.3015V58.6985C20 58.3117 20.3032 58 20.6797 58H30.3203C30.6968 58 31 58.3117 31 58.6985V92.3015C31 92.6883 30.6968 93 30.3203 93Z" fill="#282828"/>
<path d="M50.4829 91.603H59.5171V59.397H50.4829V91.603ZM60.2586 93H49.7414C49.3308 93 49 92.6883 49 92.3015V58.6985C49 58.3117 49.3308 58 49.7414 58H60.2586C60.6692 58 61 58.3117 61 58.6985V92.3015C61 92.6883 60.6692 93 60.2586 93Z" fill="#282828"/>
<path d="M79.4715 91.603H88.5057V59.397H79.4715V91.603ZM89.2586 93H78.7414C78.3308 93 78 92.6883 78 92.3015V58.6985C78 58.3117 78.3308 58 78.7414 58H89.2586C89.6692 58 90 58.3117 90 58.6985V92.3015C90 92.6883 89.6578 93 89.2586 93Z" fill="#282828"/>
<path d="M48.472 57.6225H61.5279V52.3775H48.472V57.6225ZM62.2639 59H47.736C47.3284 59 47 58.6927 47 58.3112V51.6888C47 51.3073 47.3284 51 47.736 51H62.2639C62.6716 51 63 51.3073 63 51.6888V58.3112C63 58.6821 62.6716 59 62.2639 59Z" fill="#282828"/>
<path d="M78.38 57.6225H90.6199V52.3775H78.38V57.6225ZM91.31 59H77.69C77.3078 59 77 58.6927 77 58.3112V51.6888C77 51.3073 77.3078 51 77.69 51H91.31C91.6921 51 92 51.3073 92 51.6888V58.3112C92 58.6821 91.6921 59 91.31 59Z" fill="#282828"/>
<path d="M19.3801 57.6225H31.62V52.3775H19.3801V57.6225ZM32.31 59H18.69C18.3079 59 18 58.6927 18 58.3112V51.6888C18 51.3073 18.3079 51 18.69 51H32.31C32.6922 51 33 51.3073 33 51.6888V58.3112C33 58.6821 32.6922 59 32.31 59Z" fill="#282828"/>
<path d="M48.472 98.6331H61.5279V93.3881H48.472V98.6331ZM62.2639 100H47.736C47.3284 100 47 99.6927 47 99.3112V92.6887C47 92.3072 47.3284 92 47.736 92H62.2639C62.6716 92 63 92.3072 63 92.6887V99.3112C63 99.6927 62.6716 100 62.2639 100Z" fill="#282828"/>
<path d="M78.38 98.6331H90.6199V93.3881H78.38V98.6331ZM91.31 100H77.69C77.3078 100 77 99.6927 77 99.3112V92.6887C77 92.3072 77.3078 92 77.69 92H91.31C91.6921 92 92 92.3072 92 92.6887V99.3112C92 99.6927 91.6921 100 91.31 100Z" fill="#282828"/>
<path d="M19.3801 98.6331H31.62V93.3881H19.3801V98.6331ZM32.31 100H18.69C18.3079 100 18 99.6927 18 99.3112V92.6887C18 92.3072 18.3079 92 18.69 92H32.31C32.6922 92 33 92.3072 33 92.6887V99.3112C33 99.6927 32.6922 100 32.31 100Z" fill="#282828"/>
<path d="M14.4078 105.667H96.5922V100.313H14.4078V105.667ZM97.2961 107H13.7039C13.3141 107 13 106.705 13 106.338V99.6615C13 99.2951 13.3141 99 13.7039 99H97.2961C97.686 99 98 99.2951 98 99.6615V106.338C98 106.695 97.686 107 97.2961 107Z" fill="#282828"/>
<path d="M55 35.2677C52.3925 35.2677 50.2601 37.1693 50.2601 39.5C50.2601 41.8307 52.3829 43.7225 55 43.7225C57.6171 43.7225 59.7399 41.8307 59.7399 39.5C59.7399 37.1693 57.6074 35.2677 55 35.2677ZM55 45C51.6946 45 49 42.5328 49 39.5C49 36.4672 51.6946 34 55 34C58.3053 34 61 36.4672 61 39.5C61 42.5328 58.3053 45 55 45Z" fill="#282828"/>
<circle cx="94.2101" cy="84.8175" r="17.8195" fill="white"/>
<path d="M94.2425 102.723C90.7101 102.721 87.2576 101.672 84.3215 99.7078C81.3854 97.7437 79.0976 94.9532 77.7473 91.689C76.3969 88.4249 76.0447 84.8336 76.7352 81.3693C77.4256 77.905 79.1277 74.7232 81.6263 72.2261C84.1249 69.729 87.3077 68.0289 90.7725 67.3405C94.2372 66.6521 97.8282 67.0065 101.092 68.3588C104.355 69.7111 107.144 72.0006 109.106 74.9379C111.069 77.8752 112.116 81.3283 112.116 84.8608C112.11 89.5984 110.225 94.1401 106.874 97.4891C103.523 100.838 98.9801 102.721 94.2425 102.723ZM94.2425 68.402C90.9878 68.4041 87.8067 69.3713 85.1015 71.1811C82.3963 72.9909 80.2884 75.5621 79.0444 78.5698C77.8003 81.5774 77.4759 84.8864 78.1122 88.0783C78.7484 91.2703 80.3168 94.2019 82.619 96.5026C84.9213 98.8033 87.854 100.37 91.0464 101.004C94.2387 101.638 97.5475 101.312 100.554 100.066C103.561 98.8196 106.131 96.71 107.939 94.0036C109.747 91.2972 110.712 88.1155 110.712 84.8608C110.706 80.4955 108.969 76.3109 105.881 73.2252C102.794 70.1395 98.6078 68.4049 94.2425 68.402V68.402Z" fill="#282828"/>
<path d="M94.3253 96.9657C92.9772 96.9743 91.6457 96.6674 90.4375 96.0693C89.5447 95.5744 88.7994 94.8514 88.2775 93.9742C87.6335 92.9428 87.2619 91.7649 87.1975 90.5507C87.1902 90.4584 87.2011 90.3656 87.2297 90.2777C87.2584 90.1897 87.3041 90.1082 87.3643 90.0379C87.4245 89.9677 87.4981 89.91 87.5806 89.8683C87.6632 89.8265 87.7532 89.8015 87.8455 89.7947C87.9372 89.7874 88.0294 89.7984 88.1168 89.8271C88.2041 89.8559 88.2849 89.9018 88.3543 89.9621C88.4237 90.0225 88.4803 90.096 88.5209 90.1785C88.5615 90.2611 88.5853 90.3509 88.5907 90.4427C88.6341 91.4258 88.9198 92.3829 89.4223 93.229C89.8167 93.8925 90.3792 94.4401 91.053 94.8166C93.213 95.8965 96.6581 95.8965 98.5048 93.9742C98.9591 93.4929 99.3132 92.9262 99.5468 92.307C99.7804 91.6879 99.8888 91.0285 99.8656 90.3671C99.8697 89.7476 99.7599 89.1325 99.5416 88.5527C99.3417 88.0291 99.0324 87.5542 98.6344 87.1596C98.1832 86.7065 97.6523 86.3404 97.0684 86.0796C96.1718 85.7116 95.2473 85.4155 94.3037 85.194C92.88 84.8734 91.5041 84.3687 90.2107 83.6929C89.3624 83.2247 88.6655 82.5241 88.2019 81.6733C87.7359 80.7921 87.4982 79.8082 87.5107 78.8114C87.4862 77.9429 87.6546 77.0798 88.0039 76.2843C88.3531 75.4887 88.8744 74.7805 89.5303 74.2107C90.8345 73.1921 92.4554 72.6645 94.1093 72.7204C95.7257 72.656 97.3142 73.1562 98.602 74.1352C99.7832 75.1384 100.533 76.5575 100.697 78.0986C100.722 78.2818 100.673 78.4673 100.562 78.6148C100.451 78.7624 100.286 78.8602 100.103 78.887C100.012 78.9023 99.9189 78.8988 99.8291 78.8769C99.7394 78.8549 99.6552 78.8149 99.5814 78.7594C99.5076 78.7038 99.446 78.6338 99.4001 78.5536C99.3543 78.4734 99.3253 78.3848 99.3148 78.293C99.1922 77.0934 98.6121 75.9872 97.6948 75.2043C96.6588 74.4439 95.393 74.0627 94.1093 74.1243C92.7934 74.0717 91.4998 74.4762 90.4483 75.2691C89.9449 75.708 89.5459 76.2538 89.2806 76.8667C89.0153 77.4796 88.8902 78.144 88.9147 78.8114C88.9058 79.5632 89.0839 80.3055 89.4331 80.9714C89.7684 81.5877 90.2747 82.094 90.8911 82.4293C92.0826 83.0481 93.3496 83.5091 94.6601 83.8009C95.6731 84.0454 96.6659 84.3667 97.6301 84.7621C98.3746 85.0734 99.0528 85.5243 99.628 86.0904C100.167 86.6205 100.583 87.2619 100.848 87.9696C101.13 88.7112 101.272 89.4983 101.27 90.2915C101.293 91.1307 101.151 91.9662 100.851 92.7502C100.55 93.5342 100.098 94.2511 99.52 94.8597C98.8418 95.5441 98.0316 96.0837 97.1387 96.4457C96.2458 96.8077 95.2887 96.9846 94.3253 96.9657V96.9657Z" fill="#282828"/>
<path d="M94.241 99.3215C94.0549 99.3215 93.8763 99.2475 93.7447 99.1159C93.613 98.9843 93.5391 98.8057 93.5391 98.6195V71.1883C93.5391 71.0021 93.613 70.8236 93.7447 70.6919C93.8763 70.5603 94.0549 70.4863 94.241 70.4863C94.4272 70.4863 94.6058 70.5603 94.7374 70.6919C94.8691 70.8236 94.943 71.0021 94.943 71.1883V98.6195C94.943 98.8057 94.8691 98.9843 94.7374 99.1159C94.6058 99.2475 94.4272 99.3215 94.241 99.3215Z" fill="#282828"/>
</svg>

<svg width="120" height="120" fill="none" xmlns="http://www.w3.org/2000/svg"><path d="M14.947 50.627h80.088L54.985 23.52 14.947 50.627zM97.294 52H12.709a.718.718 0 01-.673-.482.659.659 0 01.271-.765l7.84-5.309 34.436-23.318a.723.723 0 01.815 0l42.19 28.564c.25.105.412.346.412.618a.701.701 0 01-.706.692z" fill="#282828"/><circle cx="24.82" cy="30.82" r="17.82" fill="#fff"/><path d="M24.852 48.725a17.863 17.863 0 1117.873-17.862 17.884 17.884 0 01-17.873 17.862zm0-34.321a16.458 16.458 0 1016.47 16.459 16.48 16.48 0 00-16.47-16.459z" fill="#282828"/><path d="M26.608 29.804H14.633c-.13 0-.256-.074-.348-.205a.876.876 0 01-.144-.497c0-.186.052-.364.144-.496s.217-.206.348-.206h11.975c.13 0 .256.074.348.206.092.132.144.31.144.496a.876.876 0 01-.144.497c-.092.131-.217.205-.348.205zm0 3.791H14.633c-.13 0-.256-.074-.348-.205a.876.876 0 01-.144-.497c0-.186.052-.364.144-.496s.217-.206.348-.206h11.975c.13 0 .256.074.348.206.092.132.144.31.144.496a.876.876 0 01-.144.497c-.092.131-.217.205-.348.205z" fill="#282828"/><path d="M29.753 41.35h-3.1a10.357 10.357 0 110-20.713h3.1a.702.702 0 010 1.404h-3.1a8.953 8.953 0 100 17.906h3.1a.702.702 0 110 1.403zM21.36 91.603h8.28V59.397h-8.28v32.206zM30.32 93h-9.64a.688.688 0 01-.68-.698V58.698c0-.386.303-.698.68-.698h9.64c.377 0 .68.312.68.699v33.603a.688.688 0 01-.68.698zm20.163-1.397h9.034V59.397h-9.034v32.206zM60.259 93H49.74c-.41 0-.741-.312-.741-.698V58.698c0-.386.33-.698.741-.698h10.52c.41 0 .741.312.741.699v33.603c0 .386-.33.698-.741.698zm19.213-1.397h9.034V59.397h-9.034v32.206zM89.259 93H78.74c-.41 0-.741-.312-.741-.698V58.698c0-.386.33-.698.741-.698h10.52c.41 0 .741.312.741.699v33.603c0 .386-.342.698-.741.698z" fill="#282828"/><path d="M48.472 57.623h13.056v-5.245H48.472v5.245zM62.264 59H47.736c-.408 0-.736-.307-.736-.689V51.69c0-.382.328-.689.736-.689h14.528c.408 0 .736.307.736.689v6.622c0 .371-.328.689-.736.689zm16.116-1.377h12.24v-5.245H78.38v5.245zM91.31 59H77.69a.688.688 0 01-.69-.689V51.69c0-.382.308-.689.69-.689h13.62c.382 0 .69.307.69.689v6.622a.695.695 0 01-.69.689zm-71.93-1.377h12.24v-5.245H19.38v5.245zM32.31 59H18.69a.688.688 0 01-.69-.689V51.69c0-.382.308-.689.69-.689h13.62c.382 0 .69.307.69.689v6.622a.695.695 0 01-.69.689zm16.162 39.633h13.056v-5.245H48.472v5.245zM62.264 100H47.736c-.408 0-.736-.307-.736-.689V92.69c0-.382.328-.689.736-.689h14.528c.408 0 .736.307.736.689v6.622c0 .382-.328.689-.736.689zm16.116-1.367h12.24v-5.245H78.38v5.245zM91.31 100H77.69a.688.688 0 01-.69-.689V92.69c0-.382.308-.689.69-.689h13.62c.382 0 .69.307.69.689v6.622a.688.688 0 01-.69.689zm-71.93-1.367h12.24v-5.245H19.38v5.245zM32.31 100H18.69a.688.688 0 01-.69-.689V92.69c0-.382.308-.689.69-.689h13.62c.382 0 .69.307.69.689v6.622a.688.688 0 01-.69.689z" fill="#282828"/><path d="M14.408 105.667h82.184v-5.354H14.408v5.354zM97.296 107H13.704c-.39 0-.704-.295-.704-.662v-6.676c0-.367.314-.662.704-.662h83.592c.39 0 .704.295.704.662v6.676c0 .357-.314.662-.704.662zM55 35.268c-2.608 0-4.74 1.901-4.74 4.232 0 2.33 2.123 4.222 4.74 4.222s4.74-1.891 4.74-4.222c0-2.33-2.133-4.232-4.74-4.232zM55 45c-3.305 0-6-2.467-6-5.5s2.695-5.5 6-5.5 6 2.467 6 5.5-2.695 5.5-6 5.5z" fill="#282828"/><circle cx="94.21" cy="84.817" r="17.82" fill="#fff"/><path d="M94.243 102.723a17.86 17.86 0 01-17.508-21.354 17.862 17.862 0 0135.381 3.492 17.885 17.885 0 01-17.873 17.862zm0-34.321a16.459 16.459 0 1016.469 16.459 16.48 16.48 0 00-16.47-16.459z" fill="#282828"/><path d="M94.325 96.966a8.64 8.64 0 01-3.888-.897 5.766 5.766 0 01-2.16-2.095 7.182 7.182 0 01-1.08-3.423.703.703 0 011.157-.589.692.692 0 01.237.48c.043.984.329 1.94.831 2.787a4.386 4.386 0 001.631 1.588c2.16 1.08 5.605 1.08 7.452-.843a5 5 0 001.36-3.607 5.055 5.055 0 00-.323-1.814c-.2-.524-.51-.999-.908-1.393a5.207 5.207 0 00-1.566-1.08 18.288 18.288 0 00-2.764-.886c-1.424-.32-2.8-.825-4.093-1.501a5.087 5.087 0 01-2.01-2.02 5.962 5.962 0 01-.69-2.862 5.874 5.874 0 012.02-4.6 7.052 7.052 0 014.578-1.49 6.966 6.966 0 014.493 1.414 6.038 6.038 0 012.095 3.964.701.701 0 01-.594.788.68.68 0 01-.788-.594 4.687 4.687 0 00-1.62-3.089 5.605 5.605 0 00-3.586-1.08 5.702 5.702 0 00-3.66 1.145 4.481 4.481 0 00-1.534 3.542c-.01.752.169 1.494.518 2.16a3.64 3.64 0 001.458 1.458 15.475 15.475 0 003.77 1.372 20.57 20.57 0 012.97.961 6.33 6.33 0 011.997 1.328c.539.53.955 1.172 1.22 1.88a6.48 6.48 0 01.422 2.322 6.39 6.39 0 01-.419 2.458 6.387 6.387 0 01-1.331 2.11 7.117 7.117 0 01-5.195 2.106z" fill="#282828"/><path d="M94.241 99.322a.702.702 0 01-.702-.703V71.19a.702.702 0 111.404 0v27.43a.702.702 0 01-.702.703z" fill="#282828"/></svg>
